X:1
T:Clinging to Jesus
T:Clinging to Jesus
T:William Howard Doane
T:Carl Reed, 1906
T:Public Domain Courtesy of the Cyber Hymnal™
T:Public Domain Courtesy of the Cyber Hymnal™
C:William Howard Doane
Z:Public Domain
Z:Courtesy of the Cyber Hymnal™
%%score ( 1 2 ) ( 3 4 )
L:1/8
Q:1/4=105
M:4/4
K:Ab
V:1 treble 
V:2 treble 
V:3 bass 
V:4 bass 
V:1
 [Ec]>[DB] | [CA]2 [CE]2 [DF]2 [DA]2 | [CA]4 [CE]2 [DG][EA] | [EB]2 E2 [Ed]2 [Ec]2 | %4
w: 1.~Close to|Thee, my bless- èd|Sav- ior, Keep me|walk- ing, day by|
w: 2.~I am|help- less— lost with-|out Thee, Leave, oh,|leave me not a-|
w: 3.~Thou hast|died for me, Lord|Je- sus, How can|I such love for-|
w: 4.~Ev- ery|day I grieve Thy|Spir- it, Wound the|heart that broke for|
w: 5.~Help me|live as Thou wouldst|have me; Cleanse me,|Lord, and keep me|
 [EB]6 [Ec]>[DB] | [CA]2 [CE]2 [DF]2 [DA]2 | (A3 B) [Ec]2 [Fd][Fd] | [Ec]3 [EB] [EA]2 [DG]2 | %8
w: day; Let me|feel Thy pre- sence|with * me, Be my|re- fuge all the|
w: lone; Un- der-|neath Thy wings of|mer- * cy Hide, and|keep me all Thine|
w: get? Not on|earth or in Thy|pre- * sence Can I|ev- er pay the|
w: me, Yet in|Thy great love and|mer- * cy Cast me|not a- way from|
w: pure; Give me|grace and strength that|safe- * ly To the|end I may en-|
 [CA]6 ||"^Refrain" [CA][CA] | [DB][DB] [DE]2 [DB][DB] [Ec]2 | A6 [DG][EA] | %12
w: way.||||
w: own.||||
w: debt.|Draw me|near- er, still near- er to|Thee; Look in|
w: Thee.||||
w: dure.||||
 [EB][EB] E2 [Ed][Ed] [Ec]2 | B6 [Ec][Ed] | [Ee]2 [Ee]2 [Ec]2 [EA]E | %15
w: |||
w: |||
w: ten- der com- pas- sion on|me; Turn me|not a- way! Hear me|
w: |||
w: |||
 [DF]2 [EG]2 !fermata![Fd]2 [Fd][Fd] | [Ec]3 [EB] [EA]2 [DG]2 | [CA]6 |] %18
w: |||
w: |||
w: while I pray; Near- er,|near- er, Lord, to|Thee.|
w: |||
w: |||
V:2
 x2 | x8 | x8 | x2 E2 x4 | x8 | x8 | E4 x4 | x8 | x6 || x2 | x8 | (C2 D2 C2) x2 | x2 E2 x4 | %13
 (E2 E2 E2) x2 | x7 E | x8 | x8 | x6 |] %18
V:3
 [A,,A,]>[A,,A,] | [A,,A,]2 [A,,A,]2 [A,,A,]2 [A,,F,]2 | [A,,E,]4 [A,,A,]2 [B,,E,][C,A,] | %3
w: ~ ~|~ ~ ~ ~|~ ~ ~ ~|
 [E,G,]2 [E,G,]2 [G,B,]2 A,2 | [E,G,]6 [E,G,]>[E,G,] | [A,,A,]2 [A,,A,]2 [A,,A,]2 [A,,F,]2 | %6
w: ~ ~ ~ ~|~ ~ ~|~ ~ ~ ~|
 ([C,A,]3 [E,G,]) A,2 [D,A,][D,A,] | [E,A,]3 [E,D] [E,C]2 [E,B,]2 | [A,,A,]6 || [A,,A,][A,,A,] | %10
w: ~ * ~ ~ ~|~ ~ ~ ~|~|~ ~|
 [E,G,][E,G,] [E,G,]2 [E,G,][E,G,] [E,G,]2 | [A,,A,]2 [A,,F,]2 [A,,E,]2 [B,,E,][C,A,] | %12
w: ~ ~ ~ ~ ~ ~|~ to Thee ~ ~|
 [E,G,][E,G,] [E,G,]2 [G,B,][G,B,] A,2 | [E,G,]2 [A,,E,G,]2 [E,G,]2 A,[A,B,] | %14
w: ~ ~ ~ ~ ~ ~|~ on me, * *|
 [A,C]2 [A,C]2 A,2 [C,A,][C,A,] | [D,A,]2 [D,D]2 !fermata![D,A,]2 [D,A,][D,A,] | %16
w: ||
 [E,A,]3 [E,D] [E,C]2 [E,B,]2 | [A,,A,]6 |] %18
w: ||
V:4
 x2 | x8 | x8 | x6 A,2 | x8 | x8 | x4 A,2 x2 | x8 | x6 || x2 | x8 | x8 | x6 A,2 | x6 A, x | %14
 x4 A,2 x2 | x8 | x8 | x6 |] %18

